X:06
T: Tacoma
C: Hershel Sizemore
S: From The "Back In Business" CD
S: MandoZine TablEdit Archives
Z: TablEdited by Mike Stangeland for MandoZine
L: 1/8
Q: 350
M: 4/4
K: G
 z2 G,B, DG Bd |: "G"(3ggg (3ggg gb gd | "F"(3=f=f=f (3=f=f=f =f2 gg | "G"gb g=f dg ^c=c | ^A=A G2 ^A=A G=F |
 "C"E2 [(3cG][cG][cG] [(3cG][cG][cG] G2 | "Bb"c^c d^c =c^A GG |
 |1 c"G"^A (3GGG G=F GD | G,2 G,2 DG Bd :|2 c"G"^A (3GGG cd ^c^A | G2 G2 BF F=F |
 "C"E2 [(3cG][cG][cG] [(3cG][cG][cG] G2 | "Bb"EF G^A c^A GG | "G"c^A (3GGG Gd ^A=A | G2 G2 GF =FC |
 "C"E2 [(3cG][cG][cG] [(3cG][cG][cG] G2 | "Bb"^AG ^Ac ^A=A G^A | "G"d^A (3GGG G2 =FD | G,2 G,2 DG Bd |
 (3ggg (3ggg gb gd | "F"(3=f=f=f (3=f=f=f =f2 gg | "G"gb g=f dg ^c=c | ^A=A G2 ^A=A G=F |
 "C"E2 [(3cG][cG][cG] [(3cG][cG][cG] G2 | "Bb"c^c d^c =c^A GG | "G"c^A (3GGG G=F GD | G,2 G,6 |
